public/images/select-title__icon.svg

<svg width="19" height="23" viewBox="0 0 19 23" fill="none" xmlns="http://www.w3.org/2000/svg">
<path fill-rule="evenodd" clip-rule="evenodd" d="M9.93554 22.3276L10.5918 21.7533C16.1106 16.9237 18.9158 12.7068 18.9158 9C18.9158 3.75066 14.8277 0 9.93554 0C5.04337 0 0.955322 3.75066 0.955322 9C0.955322 12.7068 3.76045 16.9237 9.27926 21.7533L9.93554 22.3276ZM9.93554 19.6634C5.25247 15.4335 2.95093 11.8492 2.95093 9C2.95093 4.8966 6.10809 2 9.93554 2C13.763 2 16.9202 4.8966 16.9202 9C16.9202 11.8492 14.6186 15.4335 9.93554 19.6634ZM9.93554 4C12.6909 4 14.9246 6.23858 14.9246 9C14.9246 11.7614 12.6909 14 9.93554 14C7.18019 14 4.94653 11.7614 4.94653 9C4.94653 6.23858 7.18019 4 9.93554 4ZM6.94214 9C6.94214 7.34315 8.28233 6 9.93554 6C11.5888 6 12.9289 7.34315 12.9289 9C12.9289 10.6569 11.5888 12 9.93554 12C8.28233 12 6.94214 10.6569 6.94214 9Z" fill="#AFAFAF"/>
</svg>

<svg width="19" height="23" fill="none" xmlns="http://www.w3.org/2000/svg"><path fill-rule="evenodd" clip-rule="evenodd" d="M9.936 22.328l.656-.575c5.519-4.83 8.324-9.046 8.324-12.753 0-5.25-4.088-9-8.98-9C5.043 0 .956 3.75.956 9c0 3.707 2.804 7.924 8.323 12.753l.657.575zm0-2.665C5.252 15.433 2.95 11.85 2.95 9c0-4.103 3.157-7 6.985-7 3.827 0 6.984 2.897 6.984 7 0 2.85-2.301 6.434-6.984 10.663zM9.936 4a4.995 4.995 0 014.989 5c0 2.761-2.234 5-4.99 5a4.995 4.995 0 01-4.988-5c0-2.761 2.233-5 4.989-5zM6.942 9c0-1.657 1.34-3 2.994-3a2.997 2.997 0 012.993 3c0 1.657-1.34 3-2.993 3a2.997 2.997 0 01-2.994-3z" fill="#AFAFAF"/></svg>
